report_00007_2020-12-11T15:55:29.892Z/network-server-latency/comparison/sorted/10_vs_11.svg

<svg width="640" height="500" xmlns="http://www.w3.org/2000/svg" xmlns:xlink="http://www.w3.org/1999/xlink"><path fill="#fff" d="M0 0h640v500H0z"/><defs><path id="d" stroke-width=".222" stroke="currentColor" d="M-1-1h2v2h-2z"/><path id="b" stroke-width=".222" stroke="currentColor" d="M0-1.33l-1.33 2h2.66z"/><path id="f" stroke-width=".222" stroke="currentColor" d="M0 1.33L1.265.411.782-1.067l-1.564-.009-.483 1.487z"/><use xlink:href="#b" id="c" stroke="currentColor" transform="rotate(180)"/><use xlink:href="#d" id="e" stroke="currentColor" transform="rotate(45)"/><circle id="a" stroke-width=".222" stroke="currentColor" cx="0" cy="0" r="1"/></defs><g fill="none" color="#000" stroke="currentColor"><path stroke="#000" d="M37.3 427.3h9m568.7 0h-9"/><text transform="translate(29 431.2)" stroke="none" fill="#000" font-family="Arial" font-size="12" text-anchor="end"><tspan>1</tspan></text></g><g fill="none" color="#000" stroke="currentColor"><path stroke="#000" d="M37.3 369.6h9m568.7 0h-9"/><text transform="translate(29 373.5)" stroke="none" fill="#000" font-family="Arial" font-size="12" text-anchor="end"><tspan>2</tspan></text></g><g fill="none" color="#000" stroke="currentColor"><path stroke="#000" d="M37.3 311.8h9m568.7 0h-9"/><text transform="translate(29 315.7)" stroke="none" fill="#000" font-family="Arial" font-size="12" text-anchor="end"><tspan>3</tspan></text></g><g fill="none" color="#000" stroke="currentColor"><path stroke="#000" d="M37.3 254.1h9m568.7 0h-9"/><text transform="translate(29 258)" stroke="none" fill="#000" font-family="Arial" font-size="12" text-anchor="end"><tspan>4</tspan></text></g><g fill="none" color="#000" stroke="currentColor"><path stroke="#000" d="M37.3 196.3h9m568.7 0h-9"/><text transform="translate(29 200.2)" stroke="none" fill="#000" font-family="Arial" font-size="12" text-anchor="end"><tspan>5</tspan></text></g><g fill="none" color="#000" stroke="currentColor"><path stroke="#000" d="M37.3 138.6h9m568.7 0h-9"/><text transform="translate(29 142.5)" stroke="none" fill="#000" font-family="Arial" font-size="12" text-anchor="end"><tspan>6</tspan></text></g><g fill="none" color="#000" stroke="currentColor"><path stroke="#000" d="M37.3 80.8h9m568.7 0h-9"/><text transform="translate(29 84.7)" stroke="none" fill="#000" font-family="Arial" font-size="12" text-anchor="end"><tspan>7</tspan></text></g><g fill="none" color="#000" stroke="currentColor"><path stroke="#000" d="M37.3 23.1h9m568.7 0h-9"/><text transform="translate(29 27)" stroke="none" fill="#000" font-family="Arial" font-size="12" text-anchor="end"><tspan>8</tspan></text></g><g fill="none" color="#000" stroke="currentColor"><path stroke="#000" d="M37.3 428v-9m0-400.9v9"/><text transform="translate(37.3 449.9)" stroke="none" fill="#000" font-family="Arial" font-size="12" text-anchor="middle"><tspan>0</tspan></text></g><g fill="none" color="#000" stroke="currentColor"><path stroke="#000" d="M95.7 428v-9m0-400.9v9"/><text transform="translate(95.7 449.9)" stroke="none" fill="#000" font-family="Arial" font-size="12" text-anchor="middle"><tspan>10</tspan></text></g><g fill="none" color="#000" stroke="currentColor"><path stroke="#000" d="M154 428v-9m0-400.9v9"/><text transform="translate(154 449.9)" stroke="none" fill="#000" font-family="Arial" font-size="12" text-anchor="middle"><tspan>20</tspan></text></g><g fill="none" color="#000" stroke="currentColor"><path stroke="#000" d="M212.4 428v-9m0-400.9v9"/><text transform="translate(212.4 449.9)" stroke="none" fill="#000" font-family="Arial" font-size="12" text-anchor="middle"><tspan>30</tspan></text></g><g fill="none" color="#000" stroke="currentColor"><path stroke="#000" d="M270.7 428v-9m0-400.9v9"/><text transform="translate(270.7 449.9)" stroke="none" fill="#000" font-family="Arial" font-size="12" text-anchor="middle"><tspan>40</tspan></text></g><g fill="none" color="#000" stroke="currentColor"><path stroke="#000" d="M329.1 428v-9m0-400.9v9"/><text transform="translate(329.1 449.9)" stroke="none" fill="#000" font-family="Arial" font-size="12" text-anchor="middle"><tspan>50</tspan></text></g><g fill="none" color="#000" stroke="currentColor"><path stroke="#000" d="M387.4 428v-9m0-400.9v9"/><text transform="translate(387.4 449.9)" stroke="none" fill="#000" font-family="Arial" font-size="12" text-anchor="middle"><tspan>60</tspan></text></g><g fill="none" color="#000" stroke="currentColor"><path stroke="#000" d="M445.8 428v-9m0-400.9v9"/><text transform="translate(445.8 449.9)" stroke="none" fill="#000" font-family="Arial" font-size="12" text-anchor="middle"><tspan>70</tspan></text></g><g fill="none" color="#000" stroke="currentColor"><path stroke="#000" d="M504.1 428v-9m0-400.9v9"/><text transform="translate(504.1 449.9)" stroke="none" fill="#000" font-family="Arial" font-size="12" text-anchor="middle"><tspan>80</tspan></text></g><g fill="none" color="#000" stroke="currentColor"><path stroke="#000" d="M562.5 428v-9m0-400.9v9"/><text transform="translate(562.5 449.9)" stroke="none" fill="#000" font-family="Arial" font-size="12" text-anchor="middle"><tspan>90</tspan></text></g><path stroke="#000" d="M37.3 18.1V428H615V18.1H37.3z" fill="none" color="#000"/><text transform="translate(475.2 467.9)" stroke="none" fill="#000" font-family="Arial" font-size="12" text-anchor="end" color="#000"><tspan>pages+cached+noexternal+nojs</tspan></text><path stroke="#9400D3" d="M483.5 464h42.2M37.3 420.1l5.8-43.2 5.9-44.3 5.8-60.1 5.8-38.4 5.9-13.6 5.8-15.6 5.8-5 5.9-3.1 5.8-6.4 5.9-1.1 5.8-1.7 5.8-.3 5.9-1.9 5.8-4.2 5.8-2.3 5.9-.7 5.8-.3 5.8-.4 5.9-.4 5.8-3.7 5.8-1 5.9-.4 5.8-.1 5.8-.6 5.9-.2 5.8-2.9h5.9l5.8-.9 5.8-1.6 5.9-1.5 5.8-.3 5.8-1.7 5.9-.7 5.8-2.3 5.8-.3 5.9-.5 5.8-.6 5.8-.9 5.9-.7 5.8-.4 5.8-.8 5.9-.8 5.8-2.9 5.9-.6 5.8-1.5 5.8-.3 5.9-.1 5.8-.3 5.8-.3 5.9-3.4 5.8-.3 5.8-1.3h5.9l5.8-2 5.8-3.3 5.9-.2 5.8-1.1h5.9l5.8-2 5.8-1 5.9-1.4 5.8-.7 5.8-1.8 5.9-.5 5.8-1 5.8-.3 5.9-3 5.8-2.1 5.8-.3 5.9-1.6 5.8-.5 5.8-.1 5.9-5.5 5.8-1.6 5.9-.9 5.8-1.8 5.8-4 5.9-4.1 5.8-1 5.8-.4 5.9-.8 5.8-.1 5.8-1.6 5.9-.4 5.8-1 5.8-1.5 5.9-5.7 5.8-1.4 5.8-.2 5.9-6.5 5.8-5.3 5.9-2.4 5.8-.7 5.8-6.6 5.9-4.2 5.8-7.1 5.8-1.7 5.9-25.5L615 26" fill="none" color="#000"/><text transform="translate(475.2 485.9)" stroke="none" fill="#000" font-family="Arial" font-size="12" text-anchor="end" color="#000"><tspan>pages+cached+noexternal+nofonts+nosvg+noimg</tspan></text><path stroke="#009E73" d="M483.5 482h42.2M37.3 296.8l5.8-1.5 5.9-1.4 5.8-2.2 5.8-.5 5.9-3.6 5.8-3.8 5.8-.1 5.9-1.2 5.8-.1 5.9-.1 5.8-1.2 5.8-.7 5.9-1.3 5.8-.7 5.8-.5 5.9-.3h5.8l5.8-.1 5.9-.3 5.8-2.7 5.8-1.4 5.9-.7 5.8-.6 5.8-.6 5.9-.2 5.8-.8 5.9-1.4 5.8-1.6 5.8-.4 5.9-.4 5.8-1 5.8-.3 5.9-.7 5.8-.5 5.8-.7 5.9-.1 5.8-1 5.8-.8 5.9-.3 5.8-.2 5.8-1.7 5.9-.2h5.8l5.9-.1 5.8-1 5.8-.9 5.9-.2 5.8-.6 5.8-.1 5.9-.3 5.8-.2 5.8-.3 5.9-.4 5.8-.1 5.8-1.2 5.9-.2 5.8-.7 5.9-.5 5.8-2.1 5.8-.6 5.9-.8 5.8-.4 5.8-.3 5.9-.3h5.8l5.8-.2 5.9-.2 5.8-1.8 5.8-.1 5.9-1.4 5.8-3.6 5.8-.9h5.9l5.8-.6 5.9-1.8 5.8-2.3 5.8-3 5.9-2.2 5.8-.5 5.8-1.3 5.9-.6h5.8l5.8-.3 5.9-1.3 5.8-.5h5.8l5.9-.6 5.8-2.4 5.8-1.6 5.9-4 5.8-3.2 5.9-.3 5.8-1.8 5.8-.9 5.9-1.5 5.8-.3 5.8-11 5.9-4.5 5.8-.9" fill="none" color="#000"/><g fill="none" color="#000" stroke="currentColor"><path stroke="#000" d="M37.3 18.1V428H615V18.1H37.3z"/></g></svg>

<?xml version="1.0" encoding="utf-8"  standalone="no"?>
<svg 
 width="640" height="500"
 viewBox="0 0 640 500"
 xmlns="http://www.w3.org/2000/svg"
 xmlns:xlink="http://www.w3.org/1999/xlink"
>

<title>Gnuplot</title>
<desc>Produced by GNUPLOT 5.4 patchlevel 0 </desc>

<g id="gnuplot_canvas">

<rect x="0" y="0" width="640" height="500" fill="#ffffff"/>
<defs>

	<circle id='gpDot' r='0.5' stroke-width='0.5' stroke='currentColor'/>
	<path id='gpPt0' stroke-width='0.222' stroke='currentColor' d='M-1,0 h2 M0,-1 v2'/>
	<path id='gpPt1' stroke-width='0.222' stroke='currentColor' d='M-1,-1 L1,1 M1,-1 L-1,1'/>
	<path id='gpPt2' stroke-width='0.222' stroke='currentColor' d='M-1,0 L1,0 M0,-1 L0,1 M-1,-1 L1,1 M-1,1 L1,-1'/>
	<rect id='gpPt3' stroke-width='0.222' stroke='currentColor' x='-1' y='-1' width='2' height='2'/>
	<rect id='gpPt4' stroke-width='0.222' stroke='currentColor' fill='currentColor' x='-1' y='-1' width='2' height='2'/>
	<circle id='gpPt5' stroke-width='0.222' stroke='currentColor' cx='0' cy='0' r='1'/>
	<use xlink:href='#gpPt5' id='gpPt6' fill='currentColor' stroke='none'/>
	<path id='gpPt7' stroke-width='0.222' stroke='currentColor' d='M0,-1.33 L-1.33,0.67 L1.33,0.67 z'/>
	<use xlink:href='#gpPt7' id='gpPt8' fill='currentColor' stroke='none'/>
	<use xlink:href='#gpPt7' id='gpPt9' stroke='currentColor' transform='rotate(180)'/>
	<use xlink:href='#gpPt9' id='gpPt10' fill='currentColor' stroke='none'/>
	<use xlink:href='#gpPt3' id='gpPt11' stroke='currentColor' transform='rotate(45)'/>
	<use xlink:href='#gpPt11' id='gpPt12' fill='currentColor' stroke='none'/>
	<path id='gpPt13' stroke-width='0.222' stroke='currentColor' d='M0,1.330 L1.265,0.411 L0.782,-1.067 L-0.782,-1.076 L-1.265,0.411 z'/>
	<use xlink:href='#gpPt13' id='gpPt14' fill='currentColor' stroke='none'/>
	<filter id='textbox' filterUnits='objectBoundingBox' x='0' y='0' height='1' width='1'>
	  <feFlood flood-color='#FFFFFF' flood-opacity='1' result='bgnd'/>
	  <feComposite in='SourceGraphic' in2='bgnd' operator='atop'/>
	</filter>
	<filter id='greybox' filterUnits='objectBoundingBox' x='0' y='0' height='1' width='1'>
	  <feFlood flood-color='lightgrey' flood-opacity='1' result='grey'/>
	  <feComposite in='SourceGraphic' in2='grey' operator='atop'/>
	</filter>
</defs>
<g fill="none" color="#FFFFFF" stroke="black" stroke-width="1.00" stroke-linecap="butt" stroke-linejoin="miter">
</g>
<g fill="none" color="black" stroke="currentColor" stroke-width="1.00" stroke-linecap="butt" stroke-linejoin="miter">
	<path stroke='black'  d='M37.3,427.3 L46.3,427.3 M615.0,427.3 L606.0,427.3  '/>	<g transform="translate(29.0,431.2)" stroke="none" fill="black" font-family="Arial" font-size="12.00"  text-anchor="end">
		<text><tspan font-family="Arial" > 1</tspan></text>
	</g>
</g>
<g fill="none" color="black" stroke="currentColor" stroke-width="1.00" stroke-linecap="butt" stroke-linejoin="miter">
	<path stroke='black'  d='M37.3,369.6 L46.3,369.6 M615.0,369.6 L606.0,369.6  '/>	<g transform="translate(29.0,373.5)" stroke="none" fill="black" font-family="Arial" font-size="12.00"  text-anchor="end">
		<text><tspan font-family="Arial" > 2</tspan></text>
	</g>
</g>
<g fill="none" color="black" stroke="currentColor" stroke-width="1.00" stroke-linecap="butt" stroke-linejoin="miter">
	<path stroke='black'  d='M37.3,311.8 L46.3,311.8 M615.0,311.8 L606.0,311.8  '/>	<g transform="translate(29.0,315.7)" stroke="none" fill="black" font-family="Arial" font-size="12.00"  text-anchor="end">
		<text><tspan font-family="Arial" > 3</tspan></text>
	</g>
</g>
<g fill="none" color="black" stroke="currentColor" stroke-width="1.00" stroke-linecap="butt" stroke-linejoin="miter">
	<path stroke='black'  d='M37.3,254.1 L46.3,254.1 M615.0,254.1 L606.0,254.1  '/>	<g transform="translate(29.0,258.0)" stroke="none" fill="black" font-family="Arial" font-size="12.00"  text-anchor="end">
		<text><tspan font-family="Arial" > 4</tspan></text>
	</g>
</g>
<g fill="none" color="black" stroke="currentColor" stroke-width="1.00" stroke-linecap="butt" stroke-linejoin="miter">
	<path stroke='black'  d='M37.3,196.3 L46.3,196.3 M615.0,196.3 L606.0,196.3  '/>	<g transform="translate(29.0,200.2)" stroke="none" fill="black" font-family="Arial" font-size="12.00"  text-anchor="end">
		<text><tspan font-family="Arial" > 5</tspan></text>
	</g>
</g>
<g fill="none" color="black" stroke="currentColor" stroke-width="1.00" stroke-linecap="butt" stroke-linejoin="miter">
	<path stroke='black'  d='M37.3,138.6 L46.3,138.6 M615.0,138.6 L606.0,138.6  '/>	<g transform="translate(29.0,142.5)" stroke="none" fill="black" font-family="Arial" font-size="12.00"  text-anchor="end">
		<text><tspan font-family="Arial" > 6</tspan></text>
	</g>
</g>
<g fill="none" color="black" stroke="currentColor" stroke-width="1.00" stroke-linecap="butt" stroke-linejoin="miter">
	<path stroke='black'  d='M37.3,80.8 L46.3,80.8 M615.0,80.8 L606.0,80.8  '/>	<g transform="translate(29.0,84.7)" stroke="none" fill="black" font-family="Arial" font-size="12.00"  text-anchor="end">
		<text><tspan font-family="Arial" > 7</tspan></text>
	</g>
</g>
<g fill="none" color="black" stroke="currentColor" stroke-width="1.00" stroke-linecap="butt" stroke-linejoin="miter">
	<path stroke='black'  d='M37.3,23.1 L46.3,23.1 M615.0,23.1 L606.0,23.1  '/>	<g transform="translate(29.0,27.0)" stroke="none" fill="black" font-family="Arial" font-size="12.00"  text-anchor="end">
		<text><tspan font-family="Arial" > 8</tspan></text>
	</g>
</g>
<g fill="none" color="black" stroke="currentColor" stroke-width="1.00" stroke-linecap="butt" stroke-linejoin="miter">
	<path stroke='black'  d='M37.3,428.0 L37.3,419.0 M37.3,18.1 L37.3,27.1  '/>	<g transform="translate(37.3,449.9)" stroke="none" fill="black" font-family="Arial" font-size="12.00"  text-anchor="middle">
		<text><tspan font-family="Arial" > 0</tspan></text>
	</g>
</g>
<g fill="none" color="black" stroke="currentColor" stroke-width="1.00" stroke-linecap="butt" stroke-linejoin="miter">
	<path stroke='black'  d='M95.7,428.0 L95.7,419.0 M95.7,18.1 L95.7,27.1  '/>	<g transform="translate(95.7,449.9)" stroke="none" fill="black" font-family="Arial" font-size="12.00"  text-anchor="middle">
		<text><tspan font-family="Arial" > 10</tspan></text>
	</g>
</g>
<g fill="none" color="black" stroke="currentColor" stroke-width="1.00" stroke-linecap="butt" stroke-linejoin="miter">
	<path stroke='black'  d='M154.0,428.0 L154.0,419.0 M154.0,18.1 L154.0,27.1  '/>	<g transform="translate(154.0,449.9)" stroke="none" fill="black" font-family="Arial" font-size="12.00"  text-anchor="middle">
		<text><tspan font-family="Arial" > 20</tspan></text>
	</g>
</g>
<g fill="none" color="black" stroke="currentColor" stroke-width="1.00" stroke-linecap="butt" stroke-linejoin="miter">
	<path stroke='black'  d='M212.4,428.0 L212.4,419.0 M212.4,18.1 L212.4,27.1  '/>	<g transform="translate(212.4,449.9)" stroke="none" fill="black" font-family="Arial" font-size="12.00"  text-anchor="middle">
		<text><tspan font-family="Arial" > 30</tspan></text>
	</g>
</g>
<g fill="none" color="black" stroke="currentColor" stroke-width="1.00" stroke-linecap="butt" stroke-linejoin="miter">
	<path stroke='black'  d='M270.7,428.0 L270.7,419.0 M270.7,18.1 L270.7,27.1  '/>	<g transform="translate(270.7,449.9)" stroke="none" fill="black" font-family="Arial" font-size="12.00"  text-anchor="middle">
		<text><tspan font-family="Arial" > 40</tspan></text>
	</g>
</g>
<g fill="none" color="black" stroke="currentColor" stroke-width="1.00" stroke-linecap="butt" stroke-linejoin="miter">
	<path stroke='black'  d='M329.1,428.0 L329.1,419.0 M329.1,18.1 L329.1,27.1  '/>	<g transform="translate(329.1,449.9)" stroke="none" fill="black" font-family="Arial" font-size="12.00"  text-anchor="middle">
		<text><tspan font-family="Arial" > 50</tspan></text>
	</g>
</g>
<g fill="none" color="black" stroke="currentColor" stroke-width="1.00" stroke-linecap="butt" stroke-linejoin="miter">
	<path stroke='black'  d='M387.4,428.0 L387.4,419.0 M387.4,18.1 L387.4,27.1  '/>	<g transform="translate(387.4,449.9)" stroke="none" fill="black" font-family="Arial" font-size="12.00"  text-anchor="middle">
		<text><tspan font-family="Arial" > 60</tspan></text>
	</g>
</g>
<g fill="none" color="black" stroke="currentColor" stroke-width="1.00" stroke-linecap="butt" stroke-linejoin="miter">
	<path stroke='black'  d='M445.8,428.0 L445.8,419.0 M445.8,18.1 L445.8,27.1  '/>	<g transform="translate(445.8,449.9)" stroke="none" fill="black" font-family="Arial" font-size="12.00"  text-anchor="middle">
		<text><tspan font-family="Arial" > 70</tspan></text>
	</g>
</g>
<g fill="none" color="black" stroke="currentColor" stroke-width="1.00" stroke-linecap="butt" stroke-linejoin="miter">
	<path stroke='black'  d='M504.1,428.0 L504.1,419.0 M504.1,18.1 L504.1,27.1  '/>	<g transform="translate(504.1,449.9)" stroke="none" fill="black" font-family="Arial" font-size="12.00"  text-anchor="middle">
		<text><tspan font-family="Arial" > 80</tspan></text>
	</g>
</g>
<g fill="none" color="black" stroke="currentColor" stroke-width="1.00" stroke-linecap="butt" stroke-linejoin="miter">
	<path stroke='black'  d='M562.5,428.0 L562.5,419.0 M562.5,18.1 L562.5,27.1  '/>	<g transform="translate(562.5,449.9)" stroke="none" fill="black" font-family="Arial" font-size="12.00"  text-anchor="middle">
		<text><tspan font-family="Arial" > 90</tspan></text>
	</g>
</g>
<g fill="none" color="black" stroke="currentColor" stroke-width="1.00" stroke-linecap="butt" stroke-linejoin="miter">
</g>
<g fill="none" color="black" stroke="currentColor" stroke-width="1.00" stroke-linecap="butt" stroke-linejoin="miter">
	<path stroke='black'  d='M37.3,18.1 L37.3,428.0 L615.0,428.0 L615.0,18.1 L37.3,18.1 Z  '/></g>
<g fill="none" color="black" stroke="currentColor" stroke-width="1.00" stroke-linecap="butt" stroke-linejoin="miter">
</g>
	<g id="gnuplot_plot_1" ><title>pages+cached+noexternal+nojs</title>
<g fill="none" color="black" stroke="currentColor" stroke-width="1.00" stroke-linecap="butt" stroke-linejoin="miter">
	<g transform="translate(475.2,467.9)" stroke="none" fill="black" font-family="Arial" font-size="12.00"  text-anchor="end">
		<text><tspan font-family="Arial" >pages+cached+noexternal+nojs</tspan></text>
	</g>
</g>
<g fill="none" color="black" stroke="currentColor" stroke-width="1.00" stroke-linecap="butt" stroke-linejoin="miter">
	<path stroke='rgb(148,   0, 211)'  d='M483.5,464.0 L525.7,464.0 M37.3,420.1 L43.1,376.9 L49.0,332.6 L54.8,272.5 L60.6,234.1 L66.5,220.5
		L72.3,204.9 L78.1,199.9 L84.0,196.8 L89.8,190.4 L95.7,189.3 L101.5,187.6 L107.3,187.3 L113.2,185.4
		L119.0,181.2 L124.8,178.9 L130.7,178.2 L136.5,177.9 L142.3,177.5 L148.2,177.1 L154.0,173.4 L159.8,172.4
		L165.7,172.0 L171.5,171.9 L177.3,171.3 L183.2,171.1 L189.0,168.2 L194.9,168.2 L200.7,167.3 L206.5,165.7
		L212.4,164.2 L218.2,163.9 L224.0,162.2 L229.9,161.5 L235.7,159.2 L241.5,158.9 L247.4,158.4 L253.2,157.8
		L259.0,156.9 L264.9,156.2 L270.7,155.8 L276.5,155.0 L282.4,154.2 L288.2,151.3 L294.1,150.7 L299.9,149.2
		L305.7,148.9 L311.6,148.8 L317.4,148.5 L323.2,148.2 L329.1,144.8 L334.9,144.5 L340.7,143.2 L346.6,143.2
		L352.4,141.2 L358.2,137.9 L364.1,137.7 L369.9,136.6 L375.8,136.6 L381.6,134.6 L387.4,133.6 L393.3,132.2
		L399.1,131.5 L404.9,129.7 L410.8,129.2 L416.6,128.2 L422.4,127.9 L428.3,124.9 L434.1,122.8 L439.9,122.5
		L445.8,120.9 L451.6,120.4 L457.4,120.3 L463.3,114.8 L469.1,113.2 L475.0,112.3 L480.8,110.5 L486.6,106.5
		L492.5,102.4 L498.3,101.4 L504.1,101.0 L510.0,100.2 L515.8,100.1 L521.6,98.5 L527.5,98.1 L533.3,97.1
		L539.1,95.6 L545.0,89.9 L550.8,88.5 L556.6,88.3 L562.5,81.8 L568.3,76.5 L574.2,74.1 L580.0,73.4
		L585.8,66.8 L591.7,62.6 L597.5,55.5 L603.3,53.8 L609.2,28.3 L615.0,26.0  '/></g>
	</g>
	<g id="gnuplot_plot_2" ><title>pages+cached+noexternal+nofonts+nosvg+noimg</title>
<g fill="none" color="black" stroke="currentColor" stroke-width="1.00" stroke-linecap="butt" stroke-linejoin="miter">
	<g transform="translate(475.2,485.9)" stroke="none" fill="black" font-family="Arial" font-size="12.00"  text-anchor="end">
		<text><tspan font-family="Arial" >pages+cached+noexternal+nofonts+nosvg+noimg</tspan></text>
	</g>
</g>
<g fill="none" color="black" stroke="currentColor" stroke-width="1.00" stroke-linecap="butt" stroke-linejoin="miter">
	<path stroke='rgb(  0, 158, 115)'  d='M483.5,482.0 L525.7,482.0 M37.3,296.8 L43.1,295.3 L49.0,293.9 L54.8,291.7 L60.6,291.2 L66.5,287.6
		L72.3,283.8 L78.1,283.7 L84.0,282.5 L89.8,282.4 L95.7,282.3 L101.5,281.1 L107.3,280.4 L113.2,279.1
		L119.0,278.4 L124.8,277.9 L130.7,277.6 L136.5,277.6 L142.3,277.5 L148.2,277.2 L154.0,274.5 L159.8,273.1
		L165.7,272.4 L171.5,271.8 L177.3,271.2 L183.2,271.0 L189.0,270.2 L194.9,268.8 L200.7,267.2 L206.5,266.8
		L212.4,266.4 L218.2,265.4 L224.0,265.1 L229.9,264.4 L235.7,263.9 L241.5,263.2 L247.4,263.1 L253.2,262.1
		L259.0,261.3 L264.9,261.0 L270.7,260.8 L276.5,259.1 L282.4,258.9 L288.2,258.9 L294.1,258.8 L299.9,257.8
		L305.7,256.9 L311.6,256.7 L317.4,256.1 L323.2,256.0 L329.1,255.7 L334.9,255.5 L340.7,255.2 L346.6,254.8
		L352.4,254.7 L358.2,253.5 L364.1,253.3 L369.9,252.6 L375.8,252.1 L381.6,250.0 L387.4,249.4 L393.3,248.6
		L399.1,248.2 L404.9,247.9 L410.8,247.6 L416.6,247.6 L422.4,247.4 L428.3,247.2 L434.1,245.4 L439.9,245.3
		L445.8,243.9 L451.6,240.3 L457.4,239.4 L463.3,239.4 L469.1,238.8 L475.0,237.0 L480.8,234.7 L486.6,231.7
		L492.5,229.5 L498.3,229.0 L504.1,227.7 L510.0,227.1 L515.8,227.1 L521.6,226.8 L527.5,225.5 L533.3,225.0
		L539.1,225.0 L545.0,224.4 L550.8,222.0 L556.6,220.4 L562.5,216.4 L568.3,213.2 L574.2,212.9 L580.0,211.1
		L585.8,210.2 L591.7,208.7 L597.5,208.4 L603.3,197.4 L609.2,192.9 L615.0,192.0  '/></g>
	</g>
<g fill="none" color="#FFFFFF" stroke="rgb(  0, 158, 115)" stroke-width="2.00" stroke-linecap="butt" stroke-linejoin="miter">
</g>
<g fill="none" color="black" stroke="currentColor" stroke-width="2.00" stroke-linecap="butt" stroke-linejoin="miter">
</g>
<g fill="none" color="black" stroke="black" stroke-width="1.00" stroke-linecap="butt" stroke-linejoin="miter">
</g>
<g fill="none" color="black" stroke="currentColor" stroke-width="1.00" stroke-linecap="butt" stroke-linejoin="miter">
	<path stroke='black'  d='M37.3,18.1 L37.3,428.0 L615.0,428.0 L615.0,18.1 L37.3,18.1 Z  '/></g>
<g fill="none" color="black" stroke="currentColor" stroke-width="1.00" stroke-linecap="butt" stroke-linejoin="miter">
</g>
</g>
</svg>
